fs/pause_off_16_regular.svg

<svg viewBox="0 0 16 16" fill="none" xmlns="http://www.w3.org/2000/svg" height="1em" width="1em">
  <path d="M13.1467 13.8538L14.1464 14.8536C14.3417 15.0488 14.6583 15.0488 14.8536 14.8536C15.0488 14.6583 15.0488 14.3417 14.8536 14.1464L1.85355 1.14645C1.65829 0.951184 1.34171 0.951184 1.14645 1.14645C0.951184 1.34171 0.951184 1.65829 1.14645 1.85355L2.14619 2.85329C2.05248 3.04911 2 3.26843 2 3.5V12.5C2 13.3284 2.67157 14 3.5 14H5.5C6.32843 14 7 13.3284 7 12.5V7.70711L9 9.70711V12.5C9 13.3284 9.67157 14 10.5 14H12.5C12.7316 14 12.9509 13.9475 13.1467 13.8538ZM12.2929 13H10.5C10.2239 13 10 12.7761 10 12.5V10.7071L12.2929 13ZM6 6.70711V12.5C6 12.7761 5.77614 13 5.5 13H3.5C3.22386 13 3 12.7761 3 12.5V3.70711L6 6.70711ZM6 3.5V3.87866L7 4.87866V3.5C7 2.67157 6.32843 2 5.5 2H4.12134L5.12134 3H5.5C5.77614 3 6 3.22386 6 3.5ZM9 6.87866L10 7.87866V3.5C10 3.22386 10.2239 3 10.5 3H12.5C12.7761 3 13 3.22386 13 3.5V10.8787L14 11.8787V3.5C14 2.67157 13.3284 2 12.5 2H10.5C9.67157 2 9 2.67157 9 3.5V6.87866Z" fill="#212121"/>
</svg>

<svg viewBox="0 0 16 16" fill="none" xmlns="http://www.w3.org/2000/svg" height="1em" width="1em">
  <path d="m13.147 13.854 1 1a.5.5 0 0 0 .707-.708l-13-13a.5.5 0 1 0-.708.708l1 1A1.494 1.494 0 0 0 2 3.5v9A1.5 1.5 0 0 0 3.5 14h2A1.5 1.5 0 0 0 7 12.5V7.707l2 2V12.5a1.5 1.5 0 0 0 1.5 1.5h2c.232 0 .45-.053.647-.146ZM12.293 13H10.5a.5.5 0 0 1-.5-.5v-1.793L12.293 13ZM6 6.707V12.5a.5.5 0 0 1-.5.5h-2a.5.5 0 0 1-.5-.5V3.707l3 3ZM6 3.5v.379l1 1V3.5A1.5 1.5 0 0 0 5.5 2H4.121l1 1H5.5a.5.5 0 0 1 .5.5Zm3 3.379 1 1V3.5a.5.5 0 0 1 .5-.5h2a.5.5 0 0 1 .5.5v7.379l1 1V3.5A1.5 1.5 0 0 0 12.5 2h-2A1.5 1.5 0 0 0 9 3.5v3.379Z" fill="#212121"/>
</svg>
